X:33
T:Ships are Sailing                                                                                 
M:C                                                                                                 
L:1/8                                                                                               
K:EDor                                                                                              
Beed BcdB|AD (3FED AD (3FED|EDEF GFGA|(3Bcd ef gfed|                                                
Beed BcdB|AD (3FED AD (3FED|EDEF GFGA|1 Beed e2 ed :|2 Beed e2 ef |                                 
gfga bgeg|fefg afdf|gfga bgeg|fedf e2 ef|                                                           
gfga bgeg|fefg afdf|g2 bg faaf|1 egfd e2 ef :|2 edef gfed ||
